icons/numix/16x16/mimetypes/text-x-readme.svg

<?xml version="1.0" encoding="UTF-8" standalone="no"?>
<svg
   xmlns:dc="http://purl.org/dc/elements/1.1/"
   xmlns:cc="http://creativecommons.org/ns#"
   xmlns:rdf="http://www.w3.org/1999/02/22-rdf-syntax-ns#"
   xmlns:svg="http://www.w3.org/2000/svg"
   xmlns="http://www.w3.org/2000/svg"
   xmlns:sodipodi="http://sodipodi.sourceforge.net/DTD/sodipodi-0.dtd"
   xmlns:inkscape="http://www.inkscape.org/namespaces/inkscape"
   width="16"
   height="16"
   viewBox="0 0 16 16"
   id="svg2"
   version="1.1"
   inkscape:version="0.48.5 r10040"
   sodipodi:docname="text-x-readme.svg">
  <metadata
     id="metadata22">
    <rdf:RDF>
      <cc:Work
         rdf:about="">
        <dc:format>image/svg+xml</dc:format>
        <dc:type
           rdf:resource="http://purl.org/dc/dcmitype/StillImage" />
      </cc:Work>
    </rdf:RDF>
  </metadata>
  <defs
     id="defs20" />
  <sodipodi:namedview
     pagecolor="#ffffff"
     bordercolor="#666666"
     borderopacity="1"
     objecttolerance="10"
     gridtolerance="10"
     guidetolerance="10"
     inkscape:pageopacity="0"
     inkscape:pageshadow="2"
     inkscape:window-width="1280"
     inkscape:window-height="970"
     id="namedview18"
     showgrid="true"
     inkscape:zoom="20.85965"
     inkscape:cx="1.8283172"
     inkscape:cy="10.47013"
     inkscape:window-x="0"
     inkscape:window-y="0"
     inkscape:window-maximized="1"
     inkscape:current-layer="svg2">
    <inkscape:grid
       type="xygrid"
       id="grid3010" />
  </sodipodi:namedview>
  <path
     style="fill:#dcdcdc;fill-opacity:1"
     d="M 2.667969,-4.455e-4 C 2.324219,-4.455e-4 2,0.3378125 2,0.6964472 L 2,15.303108 C 2,15.641365 2.34375,16 2.667969,16 l 10.664062,0 C 13.65625,16 14,15.641365 14,15.303108 L 14,3.9995543 9.9999996,-4.455e-4 z"
     id="path4"
     inkscape:connector-curvature="0"
     sodipodi:nodetypes="ssssssccs" />
  <path
     style="fill:#000000;fill-opacity:0.19599998"
     d="m 10.583223,3.3315853 0.0154,0.01953 0.04005,-0.01953 z m 0.02978,0.667969 3.387,3.664062 0,-3.664062 z"
     id="path6"
     inkscape:connector-curvature="0"
     sodipodi:nodetypes="cccccccc" />
  <path
     style="fill:#ffffff;fill-opacity:0.39200003"
     d="m 9.9999996,-4.455e-4 3.9963964,3.9999998 -3.383784,0 c -0.299099,0 -0.6126124,-0.317117 -0.6126124,-0.616216 z"
     id="path8"
     inkscape:connector-curvature="0"
     sodipodi:nodetypes="ccssc" />
  <g
     style="fill:#888888"
     id="g10"
     transform="matrix(1.400938,0,0,1.400938,-3.2075044,-3.4745353)">
    <path
       d="m 8,5.332031 c -1.839844,0 -3.332031,1.492188 -3.332031,3.335938 C 4.667969,10.507812 6.160156,12 8,12 9.839844,12 11.332031,10.507812 11.332031,8.667969 11.332031,6.824219 9.839844,5.332031 8,5.332031 z M 8,6 c 1.472656,0 2.667969,1.195312 2.667969,2.667969 0,1.472656 -1.195313,2.664062 -2.667969,2.664062 -1.472656,0 -2.667969,-1.191406 -2.667969,-2.664062 C 5.332031,7.195312 6.527344,6 8,6 z"
       id="path12"
       inkscape:connector-curvature="0" />
    <path
       d="M 8.667969,7.332031 C 8.667969,7.703125 8.367188,8 8,8 7.632812,8 7.332031,7.703125 7.332031,7.332031 7.332031,6.964844 7.632812,6.667969 8,6.667969 c 0.367188,0 0.667969,0.296875 0.667969,0.664062 z"
       id="path14"
       inkscape:connector-curvature="0" />
    <path
       d="m 7.667969,8.332031 0.664062,0 c 0.335938,0 0.335938,0 0.335938,0.335938 l 0,1.664062 c 0,0.335938 0,0.335938 -0.335938,0.335938 l -0.664062,0 c -0.335938,0 -0.335938,0 -0.335938,-0.335938 l 0,-1.664062 c 0,-0.335938 0,-0.335938 0.335938,-0.335938 z"
       id="path16"
       inkscape:connector-curvature="0" />
  </g>
</svg>

<svg width="16" xmlns="http://www.w3.org/2000/svg" height="16" viewBox="0 0 16 16" xmlns:xlink="http://www.w3.org/1999/xlink">
<path style="fill:#dcdcdc" d="M 2.667969 0.332031 C 2.324219 0.332031 2 0.65625 2 1 L 2 15 C 2 15.324219 2.34375 15.667969 2.667969 15.667969 L 13.332031 15.667969 C 13.65625 15.667969 14 15.324219 14 15 L 14 4.667969 L 9.667969 0.332031 Z "/>
<path style="fill:#000;fill-opacity:.196" d="M 9.667969 4 L 9.6875 4.019531 L 9.738281 4 Z M 10.332031 4.667969 L 14 8.332031 L 14 4.667969 Z "/>
<path style="fill:#fff;fill-opacity:.392" d="M 9.667969 0.332031 L 14 4.667969 L 10.332031 4.667969 C 10.007812 4.667969 9.667969 4.324219 9.667969 4 Z "/>
<g style="fill:#888">
<path d="M 8 5.332031 C 6.160156 5.332031 4.667969 6.824219 4.667969 8.667969 C 4.667969 10.507812 6.160156 12 8 12 C 9.839844 12 11.332031 10.507812 11.332031 8.667969 C 11.332031 6.824219 9.839844 5.332031 8 5.332031 Z M 8 6 C 9.472656 6 10.667969 7.195312 10.667969 8.667969 C 10.667969 10.140625 9.472656 11.332031 8 11.332031 C 6.527344 11.332031 5.332031 10.140625 5.332031 8.667969 C 5.332031 7.195312 6.527344 6 8 6 Z "/>
<path d="M 8.667969 7.332031 C 8.667969 7.703125 8.367188 8 8 8 C 7.632812 8 7.332031 7.703125 7.332031 7.332031 C 7.332031 6.964844 7.632812 6.667969 8 6.667969 C 8.367188 6.667969 8.667969 6.964844 8.667969 7.332031 Z "/>
<path d="M 7.667969 8.332031 L 8.332031 8.332031 C 8.667969 8.332031 8.667969 8.332031 8.667969 8.667969 L 8.667969 10.332031 C 8.667969 10.667969 8.667969 10.667969 8.332031 10.667969 L 7.667969 10.667969 C 7.332031 10.667969 7.332031 10.667969 7.332031 10.332031 L 7.332031 8.667969 C 7.332031 8.332031 7.332031 8.332031 7.667969 8.332031 Z "/>
</g>
</svg>
